X: 37795
T: Sonny Beeman's Cows
R: reel
M: 4/4
K: Aminor
|:f|edcB (3ABA Gc|BE (3BBc B3A|G^FGA Bcd=f|ecdB A3f|
edcB AAEc|BE (3EEE AE (3EEE|FEDF EA (3Bcd|ecdB A3:|
|:d|eaa^g aBcf|ecdB AcBA|BE (3EEE BE (3EEE|BcdB ABcd|
eaa^g aBcf|edcB (3ABc de|fdec dBcd|ecdB A3:|

